Origami/16x16/mimetypes/x-office-presentation.svg

<svg xmlns="http://www.w3.org/2000/svg" width="16" height="16" version="1.1" viewBox="0 0 16 16">
 <path fill="#ff5721" d="m2.75 1c-0.4172 0-0.75 0.3328-0.75 0.75v13.5c0 0.417 0.3328 0.75 0.75 0.75h10.5c0.418 0 0.75-0.332 0.75-0.75v-9.25l-4.125-0.875-0.875-4.125z"/>
 <path fill="#ff855e" d="m9 1v4.1667c0 0.4584 0.3749 0.8333 0.8333 0.8333h4.1667z"/>
 <path style="fill:#ffffff" d="M 6,7 C 4.8938,7 4,7.8938 4,9 c 0,1.106 0.8938,2 2,2 1.1062,0 2,-0.894 2,-2 H 6 Z"/>
 <path style="fill:#ffffff" d="m 9,8 v 1 h 3 V 8 Z"/>
 <path style="fill:#ffffff" d="m 9,10 v 1 h 3 v -1 z"/>
 <path fill="#fff" d="m4 12v1h6v-1z"/>
</svg>

<?xml version="1.0" encoding="UTF-8" standalone="no"?>
<svg
   xmlns:dc="http://purl.org/dc/elements/1.1/"
   xmlns:cc="http://creativecommons.org/ns#"
   xmlns:rdf="http://www.w3.org/1999/02/22-rdf-syntax-ns#"
   xmlns:svg="http://www.w3.org/2000/svg"
   xmlns="http://www.w3.org/2000/svg"
   viewBox="0 0 16 16"
   version="1.1"
   width="16px"
   height="16px"
   id="svg2">
  <defs
     id="defs13" />
  <metadata
     id="metadata17">
    <rdf:RDF>
      <cc:Work
         rdf:about="">
        <dc:format>image/svg+xml</dc:format>
        <dc:type
           rdf:resource="http://purl.org/dc/dcmitype/StillImage" />
      </cc:Work>
    </rdf:RDF>
  </metadata>
  <path
     style="fill:#ff5721"
     d="M 2.75,1 C 2.3328,1 2,1.3328 2,1.75 l 0,13.5 C 2,15.667 2.3328,16 2.75,16 l 10.5,0 C 13.668,16 14,15.668 14,15.25 L 14,6 9.875,5.125 9,1 Z"
     id="path5" />
  <path
     style="fill:#ff855e"
     d="M 9,1 9,5.1666667 C 9,5.6250667 9.3749333,6 9.833333,6 L 14,6 Z"
     id="path7" />
  <path
     style="fill:#ffffff;fill-opacity:0.2"
     d="M 2.75,1 C 2.3328,1 2,1.3328 2,1.75 l 0,0.6 C 2,1.9328 2.3328,1.6 2.75,1.6 L 9,1.6 9,1 Z"
     id="path9" />
  <path
     d="m5 7c-1.1062 0-2 0.8938-2 2 0 1.106 0.8938 2 2 2s2-0.894 2-2h-2z"
     fill="#fff"
     id="path4149" />
  <path
     d="m8 8v1h4v-1z"
     fill="#fff"
     id="path4147" />
  <path
     d="m8 10v1h4v-1z"
     fill="#fff"
     id="path4145" />
  <path
     d="m4 12v1h6v-1z"
     fill="#fff"
     id="path11" />
</svg>
